X:1
T:Title
%%score { ( 1 4 ) | ( 2 3 ) }
L:1/8
M:3/2
K:Ab
V:1 treble nm="Grand Piano"
V:4 treble 
V:2 bass 
V:3 bass 
V:1
 z4 z2 [CEA]2 [DEG]2 [CEA]2 | [A,DF]6 [DFB]2 [CEA]2 [DEG]2 | [CEA]6 B2 c2 d2 | %3
 e6 [Ec]2 [EB]2 [EA]2 | [EB]6 [A,EA]2 [B,EG]2 [A,EA]2 | [A,DF]6 [DFB]2 [CEA]2 [EB]2 | %6
 [Ec]6 [Fd]2 [DF]2 [FB]2 | A6 c2 c2 B2 |[M:3/4] [CEA]6 | c2 _c2 =c2 | %10
[M:6/4] A6[K:bass][K:treble] z6 | e6 z6 | B6 [EB]2 [EA]2 [EB]2 | [Ec]6 c2 _c2 =c2 | %14
 A6[K:bass][K:treble] z6 | d6 z6 | A6 c2 c2 B2 |[M:3/4] [CEA]6 |] %18
V:2
 z4 z2 A,,2 B,,2 C,2 | D,6 B,,2 E,2 E,2 | A,,6 [E,G,E]2 [E,A,E]2 [E,B,E]2 | %3
 [A,CE]6 [A,,A,]2 [B,,G,]2 [C,A,]2 | G,8 z4 | D,6 B,,2 E,2 [E,G,]2 | %6
 [A,,A,]6 [D,A,]2 [D,A,]2 [D,D]2 | [E,CE]6 [E,A,E]2 [E,G,E]2 [E,DE]2 |[M:3/4] A,,6 | E2 =D2 E2 | %10
[M:6/4] C6[K:treble] z6 | E6[K:bass] z6 | [E,G,E]6 [D,G,]2 [C,A,]2 [B,,G,]2 | [A,,A,]6 E2 =D2 E2 | %14
 C6[K:treble] z6 | F6[K:bass] z6 | [E,CE]6 [E,A,E]2 [E,G,E]2 [E,DE]2 |[M:3/4] A,,6 |] %18
V:3
 x12 | x12 | x12 | x12 | E,4 D,2 C,2 D,2 C,2 | x12 | x12 | x12 |[M:3/4] x6 | x6 | %10
[M:6/4] z2 A,,2 A,,2[K:treble] E2 =D2 E2 | z2 A,2[K:bass] A,2 [A,CE]2 [G,B,E]2 [A,E]2 | x12 | x12 | %14
 z2 A,,2 A,,2[K:treble] E2 =D2 E2 | z2[K:bass] D,2 D,2 [D,A,]2 [D,A,]2 [D,D]2 | x12 |[M:3/4] x6 |] %18
V:4
 x12 | x12 | x12 | x12 | x12 | x12 | x12 | x12 |[M:3/4] x6 | x6 | %10
[M:6/4] z2[K:bass] E,2 A,2[K:treble] c2 _c2 =c2 | z2 C2 C2 e2 d2 c2 | x12 | x12 | %14
 z2[K:bass] E,2 A,2[K:treble] c2 _c2 =c2 | z2 A,2 A,2 [Fd]2 [DF]2 [FB]2 | x12 |[M:3/4] x6 |] %18

